src/images/techStack/gatsby.svg

<svg width="500" height="500" fill="none" xmlns="http://www.w3.org/2000/svg"><path d="M387.502 250.633H300.02v25.01h60.01c-8.759 37.498-36.267 68.734-72.498 81.256L143.733 213.136c14.985-43.759 57.513-75.03 106.267-75.03 37.497 0 71.266 18.748 92.512 47.522l18.749-16.251c-25.01-33.769-65.005-56.282-111.261-56.282-65.005 0-120.021 46.257-133.774 107.498l165.01 165.01c60.01-14.985 106.266-69.965 106.266-134.97Zm-275.005 1.266c0 35 13.754 68.734 39.995 95.011 26.241 26.276 61.241 39.995 95.01 39.995L112.497 251.899Z" fill="#fff"/><path d="M250 75c-96.241 0-175 78.759-175 175s78.759 175 175 175 175-78.759 175-175S346.241 75 250 75Zm-97.508 272.508c-26.241-26.242-39.995-61.242-39.995-95.011l136.272 135.006c-35.035-1.267-70.035-13.754-96.277-39.995Zm127.513 36.266L116.226 219.995C129.98 158.754 184.995 112.497 250 112.497c46.256 0 86.251 22.513 111.261 56.247l-18.748 16.251c-21.247-28.739-55.016-47.487-92.513-47.487-48.754 0-90.015 31.236-106.266 74.995l143.763 143.763c36.267-12.487 63.739-43.758 72.498-81.256H300.02V250h87.518c-.035 65.005-46.257 120.02-107.533 133.774Z" fill="#000"/></svg>

<svg width="500" height="500" viewBox="0 0 500 500" fill="none" xmlns="http://www.w3.org/2000/svg">
<rect width="500" height="500" fill="white"/>
<path d="M387.502 250.633H300.02V275.643H360.03C351.271 313.141 323.763 344.377 287.532 356.899L143.733 213.136C158.718 169.377 201.246 138.106 250 138.106C287.497 138.106 321.266 156.854 342.512 185.628L361.261 169.377C336.251 135.608 296.256 113.095 250 113.095C184.995 113.095 129.979 159.352 116.226 220.593L281.236 385.603C341.246 370.618 387.502 315.638 387.502 250.633ZM112.497 251.899C112.497 286.899 126.251 320.633 152.492 346.91C178.733 373.186 213.733 386.905 247.502 386.905L112.497 251.899Z" fill="white"/>
<path d="M250 75C153.759 75 75 153.759 75 250C75 346.241 153.759 425 250 425C346.241 425 425 346.241 425 250C425 153.759 346.241 75 250 75ZM152.492 347.508C126.251 321.266 112.497 286.266 112.497 252.497L248.769 387.503C213.734 386.236 178.734 373.749 152.492 347.508ZM280.005 383.774L116.226 219.995C129.98 158.754 184.995 112.497 250 112.497C296.256 112.497 336.251 135.01 361.261 168.744L342.513 184.995C321.266 156.256 287.497 137.508 250 137.508C201.246 137.508 159.985 168.744 143.734 212.503L287.497 356.266C323.764 343.779 351.236 312.508 359.995 275.01H300.02V250H387.538C387.503 315.005 341.281 370.02 280.005 383.774Z" fill="black"/>
</svg>
